components/AppDevelopmentCommon/Svg/svgs/titledExpress.svg

<svg width="120" height="131" viewBox="0 0 120 131" fill="none" xmlns="http://www.w3.org/2000/svg">
<path d="M15.952 109.642V113.98H20.776V115.24H15.952V119.668H21.316V121H14.314V108.31H21.316V109.642H15.952ZM29.1075 121L26.5335 117.22L24.2115 121H22.3935L25.6335 115.906L22.3755 111.118H24.2475L26.7495 114.79L29.0355 111.118H30.8535L27.6315 116.086L30.9795 121H29.1075ZM37.9614 110.992C38.8374 110.992 39.6174 111.196 40.3014 111.604C40.9854 112.012 41.5194 112.6 41.9034 113.368C42.2994 114.136 42.4974 115.036 42.4974 116.068C42.4974 117.1 42.2994 118 41.9034 118.768C41.5194 119.524 40.9854 120.106 40.3014 120.514C39.6174 120.922 38.8374 121.126 37.9614 121.126C37.0014 121.126 36.1854 120.886 35.5134 120.406C34.8534 119.914 34.3974 119.272 34.1454 118.48V125.68H32.5074V111.118H34.1454V113.638C34.3974 112.846 34.8534 112.21 35.5134 111.73C36.1854 111.238 37.0014 110.992 37.9614 110.992ZM37.4934 112.45C36.8574 112.45 36.2814 112.6 35.7654 112.9C35.2494 113.188 34.8474 113.608 34.5594 114.16C34.2714 114.712 34.1274 115.348 34.1274 116.068C34.1274 116.788 34.2714 117.424 34.5594 117.976C34.8474 118.516 35.2494 118.936 35.7654 119.236C36.2814 119.536 36.8574 119.686 37.4934 119.686C38.5134 119.686 39.3234 119.368 39.9234 118.732C40.5354 118.084 40.8414 117.196 40.8414 116.068C40.8414 114.94 40.5354 114.058 39.9234 113.422C39.3234 112.774 38.5134 112.45 37.4934 112.45ZM46.2743 113.116C46.5983 112.432 47.0723 111.904 47.6963 111.532C48.3203 111.148 49.0643 110.956 49.9283 110.956V112.738H49.4243C48.5003 112.738 47.7443 112.978 47.1563 113.458C46.5683 113.926 46.2743 114.706 46.2743 115.798V121H44.6363V111.118H46.2743V113.116ZM60.6345 115.51C60.6345 115.858 60.6105 116.158 60.5625 116.41H52.6605C52.6965 117.538 53.0145 118.384 53.6145 118.948C54.2265 119.512 54.9705 119.794 55.8465 119.794C56.6385 119.794 57.2985 119.596 57.8265 119.2C58.3665 118.792 58.6965 118.252 58.8165 117.58H60.5625C60.4425 118.264 60.1725 118.876 59.7525 119.416C59.3445 119.956 58.8105 120.376 58.1505 120.676C57.4905 120.976 56.7465 121.126 55.9185 121.126C54.9705 121.126 54.1305 120.922 53.3985 120.514C52.6665 120.106 52.0905 119.524 51.6705 118.768C51.2625 118 51.0585 117.1 51.0585 116.068C51.0585 115.036 51.2625 114.136 51.6705 113.368C52.0905 112.6 52.6665 112.012 53.3985 111.604C54.1305 111.196 54.9705 110.992 55.9185 110.992C56.8785 110.992 57.7125 111.196 58.4205 111.604C59.1405 112.012 59.6865 112.558 60.0585 113.242C60.4425 113.926 60.6345 114.682 60.6345 115.51ZM58.9785 115.618C59.0145 114.886 58.8945 114.274 58.6185 113.782C58.3425 113.29 57.9645 112.924 57.4845 112.684C57.0045 112.444 56.4825 112.324 55.9185 112.324C55.0185 112.324 54.2625 112.606 53.6505 113.17C53.0385 113.722 52.7085 114.538 52.6605 115.618H58.9785ZM65.8729 110.992C66.9889 110.992 67.8829 111.286 68.5549 111.874C69.2389 112.45 69.6529 113.23 69.7969 114.214H68.2309C68.1589 113.626 67.9129 113.146 67.4929 112.774C67.0849 112.39 66.5329 112.198 65.8369 112.198C65.2489 112.198 64.7869 112.342 64.4509 112.63C64.1269 112.906 63.9649 113.284 63.9649 113.764C63.9649 114.124 64.0729 114.418 64.2889 114.646C64.5169 114.862 64.7929 115.03 65.1169 115.15C65.4529 115.258 65.9089 115.378 66.4849 115.51C67.2169 115.678 67.8049 115.852 68.2489 116.032C68.7049 116.2 69.0889 116.476 69.4009 116.86C69.7249 117.244 69.8869 117.76 69.8869 118.408C69.8869 119.212 69.5809 119.866 68.9689 120.37C68.3689 120.874 67.5649 121.126 66.5569 121.126C65.3809 121.126 64.4209 120.844 63.6769 120.28C62.9329 119.716 62.4949 118.93 62.3629 117.922H63.9469C64.0069 118.522 64.2649 119.008 64.7209 119.38C65.1889 119.752 65.8009 119.938 66.5569 119.938C67.1209 119.938 67.5589 119.794 67.8709 119.506C68.1949 119.218 68.3569 118.84 68.3569 118.372C68.3569 117.988 68.2429 117.682 68.0149 117.454C67.7869 117.226 67.5049 117.052 67.1689 116.932C66.8329 116.812 66.3709 116.686 65.7829 116.554C65.0509 116.386 64.4629 116.218 64.0189 116.05C63.5869 115.882 63.2149 115.618 62.9029 115.258C62.6029 114.886 62.4529 114.388 62.4529 113.764C62.4529 112.936 62.7589 112.27 63.3709 111.766C63.9829 111.25 64.8169 110.992 65.8729 110.992ZM75.1717 110.992C76.2877 110.992 77.1817 111.286 77.8537 111.874C78.5377 112.45 78.9517 113.23 79.0957 114.214H77.5297C77.4577 113.626 77.2117 113.146 76.7917 112.774C76.3837 112.39 75.8317 112.198 75.1357 112.198C74.5477 112.198 74.0857 112.342 73.7497 112.63C73.4257 112.906 73.2637 113.284 73.2637 113.764C73.2637 114.124 73.3717 114.418 73.5877 114.646C73.8157 114.862 74.0917 115.03 74.4157 115.15C74.7517 115.258 75.2077 115.378 75.7837 115.51C76.5157 115.678 77.1037 115.852 77.5477 116.032C78.0037 116.2 78.3877 116.476 78.6997 116.86C79.0237 117.244 79.1857 117.76 79.1857 118.408C79.1857 119.212 78.8797 119.866 78.2677 120.37C77.6677 120.874 76.8637 121.126 75.8557 121.126C74.6797 121.126 73.7197 120.844 72.9757 120.28C72.2317 119.716 71.7937 118.93 71.6617 117.922H73.2457C73.3057 118.522 73.5637 119.008 74.0197 119.38C74.4877 119.752 75.0997 119.938 75.8557 119.938C76.4197 119.938 76.8577 119.794 77.1697 119.506C77.4937 119.218 77.6557 118.84 77.6557 118.372C77.6557 117.988 77.5417 117.682 77.3137 117.454C77.0857 117.226 76.8037 117.052 76.4677 116.932C76.1317 116.812 75.6697 116.686 75.0817 116.554C74.3497 116.386 73.7617 116.218 73.3177 116.05C72.8857 115.882 72.5137 115.618 72.2017 115.258C71.9017 114.886 71.7517 114.388 71.7517 113.764C71.7517 112.936 72.0577 112.27 72.6697 111.766C73.2817 111.25 74.1157 110.992 75.1717 110.992ZM91.9958 108.31V117.742C91.9958 118.786 91.6958 119.614 91.0958 120.226C90.5078 120.826 89.6798 121.126 88.6118 121.126C87.4598 121.126 86.5538 120.79 85.8938 120.118C85.2458 119.434 84.9218 118.48 84.9218 117.256H86.5598C86.5598 117.988 86.7218 118.57 87.0458 119.002C87.3698 119.422 87.8678 119.632 88.5398 119.632C89.1758 119.632 89.6378 119.452 89.9258 119.092C90.2138 118.732 90.3578 118.282 90.3578 117.742V108.31H91.9958ZM102.569 117.706C102.569 118.306 102.425 118.864 102.137 119.38C101.849 119.896 101.411 120.316 100.823 120.64C100.235 120.964 99.5086 121.126 98.6446 121.126C97.8046 121.126 97.0546 120.976 96.3946 120.676C95.7466 120.364 95.2246 119.944 94.8286 119.416C94.4446 118.876 94.2226 118.264 94.1626 117.58H95.9086C95.9446 117.94 96.0646 118.294 96.2686 118.642C96.4846 118.978 96.7846 119.26 97.1686 119.488C97.5646 119.704 98.0386 119.812 98.5906 119.812C99.3106 119.812 99.8626 119.62 100.247 119.236C100.631 118.852 100.823 118.36 100.823 117.76C100.823 117.244 100.685 116.824 100.409 116.5C100.145 116.176 99.8146 115.924 99.4186 115.744C99.0226 115.552 98.4826 115.348 97.7986 115.132C96.9946 114.868 96.3466 114.622 95.8546 114.394C95.3746 114.154 94.9606 113.8 94.6126 113.332C94.2766 112.864 94.1086 112.246 94.1086 111.478C94.1086 110.818 94.2646 110.236 94.5766 109.732C94.9006 109.228 95.3566 108.838 95.9446 108.562C96.5446 108.286 97.2466 108.148 98.0506 108.148C99.2986 108.148 100.289 108.454 101.021 109.066C101.753 109.666 102.179 110.434 102.299 111.37H100.535C100.439 110.866 100.181 110.422 99.7606 110.038C99.3406 109.654 98.7706 109.462 98.0506 109.462C97.3906 109.462 96.8626 109.636 96.4666 109.984C96.0706 110.32 95.8726 110.8 95.8726 111.424C95.8726 111.916 95.9986 112.318 96.2506 112.63C96.5146 112.93 96.8386 113.17 97.2226 113.35C97.6066 113.518 98.1346 113.71 98.8066 113.926C99.6226 114.19 100.277 114.442 100.769 114.682C101.273 114.922 101.699 115.288 102.047 115.78C102.395 116.26 102.569 116.902 102.569 117.706Z" fill="#A0A0A0"/>
<path d="M40.0117 51.7534V28.7079H41.2627V32.3332C41.4105 32.1726 41.547 32.002 41.6712 31.8226C42.1824 30.7615 42.9854 29.868 43.9863 29.2471C44.9871 28.6261 46.1442 28.3032 47.3219 28.3164C50.1728 28.2313 52.4876 29.2866 53.8492 31.8226C54.7156 33.398 55.1924 35.1579 55.2398 36.9552C55.2872 38.7525 54.9037 40.535 54.1216 42.1539C52.8535 44.9963 49.7218 46.409 46.3688 45.8899C45.3254 45.801 44.3208 45.4523 43.4468 44.8755C42.5727 44.2987 41.8569 43.5123 41.3648 42.5879V51.7534H40.0117ZM41.2627 36.8606C41.3733 37.9839 41.4159 38.7839 41.5435 39.5668C42.0371 42.6475 43.8583 44.4772 46.7177 44.8091C48.0603 45.0298 49.438 44.778 50.6158 44.0968C51.7936 43.4156 52.6987 42.347 53.1769 41.0731C53.7264 39.7629 53.9909 38.3507 53.9527 36.9304C53.9146 35.5101 53.5747 34.1142 52.9557 32.8353C52.4452 31.6936 51.5772 30.7489 50.4825 30.144C49.3879 29.5392 48.1262 29.3069 46.8879 29.4823C45.7253 29.5665 44.6179 30.0109 43.7195 30.7537C42.8212 31.4964 42.1766 32.5007 41.8754 33.6267C41.6089 34.6919 41.4043 35.7717 41.2627 36.8606Z" fill="black"/>
<path d="M80.7572 39.9922C80.5676 41.6148 79.7952 43.1133 78.5836 44.2091C77.372 45.3048 75.8037 45.9233 74.1703 45.9494C68.9281 46.2132 66.4686 42.7325 66.0772 38.7157C65.8055 36.5344 66.1596 34.3208 67.0984 32.3331C67.7521 30.9697 68.8228 29.8497 70.1554 29.1352C71.488 28.4207 73.0133 28.1488 74.5107 28.3589C75.9343 28.4795 77.2838 29.045 78.3682 29.9751C79.4526 30.9052 80.2169 32.153 80.5529 33.5415C80.8193 34.8062 81.0153 36.0847 81.1401 37.3711H67.3622C67.1069 41.0135 69.0642 43.941 71.8385 44.6473C75.2937 45.4983 78.2467 44.0005 79.319 40.7156C79.5573 39.8731 79.9913 39.754 80.7572 39.9922ZM67.3622 36.2052H79.6764C79.5998 32.3246 77.1829 29.5162 73.9065 29.4737C70.1961 29.4141 67.5239 32.1204 67.3622 36.2052Z" fill="black"/>
<path d="M83.2931 40.0774H84.5016C84.5462 40.9666 84.8351 41.8263 85.3366 42.5619C85.838 43.2976 86.5326 43.8808 87.3439 44.2474C88.3628 44.7058 89.4719 44.9286 90.5887 44.8992C91.7056 44.8697 92.8014 44.5887 93.7946 44.0772C94.3359 43.8331 94.7893 43.429 95.0937 42.9192C95.398 42.4094 95.5387 41.8185 95.4967 41.2263C95.5278 40.6551 95.3718 40.0893 95.0524 39.6147C94.7329 39.1402 94.2675 38.7828 93.7266 38.5966C92.399 38.103 90.9863 37.8307 89.6332 37.3967C88.2253 36.9958 86.8486 36.4923 85.5143 35.8904C83.3357 34.8266 83.1995 30.6822 85.6674 29.3716C86.9311 28.6585 88.3533 28.2732 89.8042 28.2509C91.255 28.2286 92.6883 28.57 93.9734 29.244C94.7518 29.6742 95.3806 30.3315 95.7759 31.1282C96.1712 31.9249 96.3143 32.8232 96.186 33.7033H95.1478C95.1478 33.6522 95.0541 33.6097 95.0541 33.5586C94.9265 30.2482 92.1522 29.2269 89.1736 29.5163C88.2845 29.626 87.4208 29.8879 86.6206 30.2907C86.1398 30.5106 85.7391 30.8743 85.4739 31.3316C85.2087 31.7889 85.0919 32.3173 85.1398 32.8438C85.1413 33.3705 85.3057 33.8839 85.6104 34.3135C85.9151 34.7432 86.3452 35.068 86.8418 35.2436C88.1524 35.7202 89.5225 36.0265 90.8671 36.401C91.9479 36.6989 93.0713 36.8946 94.118 37.252C94.8568 37.4942 95.5047 37.955 95.9758 38.5735C96.4469 39.1921 96.719 39.939 96.7562 40.7156C96.8825 41.5665 96.7375 42.4356 96.3418 43.1994C95.9462 43.9633 95.3199 44.583 94.552 44.9707C91.7097 46.5791 87.0291 46.1536 84.9441 44.1197C84.4157 43.5883 83.9977 42.9574 83.7144 42.2636C83.431 41.5698 83.2878 40.8268 83.2931 40.0774Z" fill="black"/>
<path d="M112.075 33.7034H110.943C110.943 33.5502 110.884 33.414 110.867 33.2864C110.848 32.438 110.539 31.6216 109.991 30.974C109.442 30.3264 108.688 29.8869 107.854 29.7291C106.281 29.2777 104.603 29.3585 103.08 29.9589C102.478 30.1315 101.948 30.4941 101.569 30.9925C101.191 31.491 100.983 32.0986 100.978 32.7247C100.957 33.3396 101.149 33.9429 101.521 34.4328C101.893 34.9227 102.422 35.2693 103.02 35.4139C104.722 35.9415 106.467 36.2649 108.195 36.7415C108.754 36.8759 109.306 37.0435 109.846 37.2436C110.652 37.532 111.352 38.0569 111.855 38.7496C112.358 39.4424 112.641 40.2708 112.666 41.1266C112.69 41.9824 112.456 42.8258 111.994 43.5466C111.532 44.2673 110.863 44.8319 110.075 45.1665C108.874 45.7119 107.573 46.0004 106.254 46.0136C104.935 46.0268 103.628 45.7643 102.416 45.2431C101.42 44.8134 100.579 44.0888 100.007 43.1667C99.4349 42.2447 99.159 41.1695 99.2164 40.086H99.693H100.323C100.527 41.0734 100.97 41.9961 101.611 42.774C102.253 43.552 103.074 44.1619 104.005 44.5508C104.935 44.9397 105.946 45.096 106.951 45.006C107.955 44.9161 108.923 44.5827 109.769 44.0347C110.285 43.7668 110.713 43.3566 111.002 42.8528C111.292 42.349 111.431 41.7727 111.403 41.1923C111.429 40.6208 111.267 40.0565 110.943 39.585C110.619 39.1135 110.15 38.7606 109.607 38.5797C108.28 38.0861 106.867 37.8223 105.514 37.3883C104.098 36.9935 102.713 36.4958 101.369 35.899C99.242 34.8522 99.0718 30.7418 101.497 29.4313C102.777 28.6883 104.226 28.2891 105.706 28.2727C107.185 28.2563 108.644 28.6232 109.939 29.3377C110.68 29.78 111.277 30.4281 111.656 31.2032C112.035 31.9783 112.181 32.8469 112.075 33.7034Z" fill="black"/>
<path d="M37.944 45.5324C37.4984 45.7012 37.0065 45.7008 36.5611 45.5315C36.1158 45.3621 35.748 45.0355 35.5271 44.6133C34.1399 42.5369 32.6081 40.554 31.1358 38.5286L30.4976 37.6776C28.7445 40.0264 26.9914 42.2816 25.3915 44.6219C25.183 45.0253 24.8351 45.3393 24.4123 45.5052C23.9896 45.6712 23.521 45.6778 23.0938 45.5239L29.6721 36.6989L23.5533 28.7249C23.9938 28.5659 24.4756 28.5637 24.9175 28.7187C25.3593 28.8738 25.7342 29.1765 25.9787 29.5759C27.3999 31.6524 28.9743 33.6353 30.5401 35.7373C32.1145 33.6523 33.6719 31.6609 35.1271 29.6014C35.3367 29.2045 35.6849 28.8985 36.1054 28.7416C36.5259 28.5847 36.9895 28.5878 37.4078 28.7504L35.0335 31.8992C33.9697 33.3034 32.923 34.716 31.8167 36.0862C31.7275 36.166 31.6562 36.2637 31.6074 36.373C31.5586 36.4822 31.5333 36.6005 31.5333 36.7202C31.5333 36.8398 31.5586 36.9582 31.6074 37.0674C31.6562 37.1766 31.7275 37.2744 31.8167 37.3542C33.8506 40.0519 35.8675 42.7581 37.944 45.5324Z" fill="black"/>
<path d="M65.8727 28.6398V29.8312C65.012 29.7747 64.149 29.8994 63.3394 30.1971C62.5299 30.4948 61.7917 30.959 61.1726 31.5596C60.5535 32.1602 60.0673 32.884 59.7452 33.6842C59.4232 34.4844 59.2725 35.3433 59.3029 36.2053C59.3029 39.008 59.3029 41.8107 59.3029 44.6133C59.3029 44.9112 59.3029 45.209 59.3029 45.5665H58.0859V28.7079H59.2774V32.163C60.7496 29.644 63.0218 28.7079 65.8727 28.6398Z" fill="black"/>
<path d="M7.33203 36.5882C7.51074 35.7372 7.62138 34.8096 7.86817 33.9416C9.34043 28.7078 15.3401 26.5292 19.4675 29.7716C21.8844 31.6694 22.4886 34.3586 22.3695 37.3882H8.75323C8.53196 42.8007 12.4381 46.0686 17.4336 44.4006C18.2439 44.1107 18.9693 43.6236 19.5443 42.9833C20.1193 42.3429 20.5258 41.5694 20.727 40.7327C20.9908 39.8817 21.4163 39.737 22.2248 39.9838C22.0916 41.0198 21.7253 42.0122 21.1534 42.8863C20.5815 43.7604 19.8189 44.4934 18.9229 45.0303C17.4424 45.8399 15.7439 46.1606 14.0702 45.9466C12.3965 45.7326 10.8334 44.9949 9.60424 43.8389C8.38827 42.4717 7.65304 40.7442 7.51074 38.92C7.51074 38.6307 7.40011 38.3413 7.34054 38.069C7.33487 37.5641 7.33203 37.0705 7.33203 36.5882ZM8.77025 36.2223H21.0844C21.0078 32.2991 18.5314 29.5163 15.2295 29.4908C11.5531 29.4397 8.92343 32.163 8.76174 36.2053L8.77025 36.2223Z" fill="black"/>
</svg>

<svg xmlns="http://www.w3.org/2000/svg" width="120" height="131" fill="none">
  <path fill="#A0A0A0" d="M15.952 109.642v4.338h4.824v1.26h-4.824v4.428h5.364V121h-7.002v-12.69h7.002v1.332h-5.364ZM29.108 121l-2.575-3.78-2.322 3.78h-1.817l3.24-5.094-3.259-4.788h1.872l2.503 3.672 2.285-3.672h1.819l-3.223 4.968L30.98 121h-1.872Zm8.853-10.008c.876 0 1.656.204 2.34.612.684.408 1.218.996 1.602 1.764.396.768.594 1.668.594 2.7 0 1.032-.198 1.932-.594 2.7-.384.756-.918 1.338-1.602 1.746-.684.408-1.464.612-2.34.612-.96 0-1.776-.24-2.448-.72a3.769 3.769 0 0 1-1.368-1.926v7.2h-1.638v-14.562h1.638v2.52a3.675 3.675 0 0 1 1.368-1.908c.672-.492 1.488-.738 2.448-.738Zm-.468 1.458c-.636 0-1.212.15-1.728.45a2.985 2.985 0 0 0-1.206 1.26c-.288.552-.432 1.188-.432 1.908s.144 1.356.432 1.908c.288.54.69.96 1.206 1.26.516.3 1.092.45 1.728.45 1.02 0 1.83-.318 2.43-.954.612-.648.918-1.536.918-2.664 0-1.128-.306-2.01-.918-2.646-.6-.648-1.41-.972-2.43-.972Zm8.781.666a3.58 3.58 0 0 1 1.422-1.584c.624-.384 1.368-.576 2.232-.576v1.782h-.504c-.924 0-1.68.24-2.268.72-.588.468-.882 1.248-.882 2.34V121h-1.638v-9.882h1.638v1.998Zm14.36 2.394c0 .348-.023.648-.072.9h-7.901c.035 1.128.353 1.974.953 2.538.613.564 1.357.846 2.233.846.791 0 1.451-.198 1.98-.594.54-.408.87-.948.99-1.62h1.745a4.098 4.098 0 0 1-.81 1.836c-.408.54-.942.96-1.602 1.26-.66.3-1.404.45-2.231.45-.948 0-1.788-.204-2.52-.612a4.399 4.399 0 0 1-1.729-1.746c-.407-.768-.611-1.668-.611-2.7 0-1.032.204-1.932.611-2.7a4.37 4.37 0 0 1 1.728-1.764c.732-.408 1.572-.612 2.52-.612.96 0 1.794.204 2.502.612.72.408 1.267.954 1.639 1.638.384.684.576 1.44.576 2.268Zm-1.656.108c.036-.732-.084-1.344-.36-1.836a2.632 2.632 0 0 0-1.134-1.098 3.452 3.452 0 0 0-1.566-.36c-.9 0-1.655.282-2.267.846-.613.552-.943 1.368-.99 2.448h6.317Zm6.895-4.626c1.116 0 2.01.294 2.682.882.684.576 1.098 1.356 1.242 2.34H68.23c-.072-.588-.318-1.068-.738-1.44-.408-.384-.96-.576-1.656-.576-.588 0-1.05.144-1.386.432-.324.276-.486.654-.486 1.134 0 .36.108.654.324.882.228.216.504.384.828.504.336.108.792.228 1.368.36.732.168 1.32.342 1.764.522.456.168.84.444 1.152.828.324.384.486.9.486 1.548 0 .804-.306 1.458-.918 1.962-.6.504-1.404.756-2.412.756-1.176 0-2.136-.282-2.88-.846-.744-.564-1.182-1.35-1.314-2.358h1.584c.06.6.318 1.086.774 1.458.468.372 1.08.558 1.836.558.564 0 1.002-.144 1.314-.432.324-.288.486-.666.486-1.134 0-.384-.114-.69-.342-.918a2.243 2.243 0 0 0-.846-.522c-.336-.12-.798-.246-1.386-.378-.732-.168-1.32-.336-1.764-.504a2.804 2.804 0 0 1-1.116-.792c-.3-.372-.45-.87-.45-1.494 0-.828.306-1.494.918-1.998.612-.516 1.446-.774 2.502-.774Zm9.299 0c1.116 0 2.01.294 2.682.882.684.576 1.098 1.356 1.242 2.34H77.53c-.072-.588-.318-1.068-.738-1.44-.408-.384-.96-.576-1.656-.576-.588 0-1.05.144-1.386.432-.324.276-.486.654-.486 1.134 0 .36.108.654.324.882.228.216.504.384.828.504.336.108.792.228 1.368.36.732.168 1.32.342 1.764.522.456.168.84.444 1.152.828.324.384.486.9.486 1.548 0 .804-.306 1.458-.918 1.962-.6.504-1.404.756-2.412.756-1.176 0-2.136-.282-2.88-.846-.744-.564-1.182-1.35-1.314-2.358h1.584c.06.6.318 1.086.774 1.458.468.372 1.08.558 1.836.558.564 0 1.002-.144 1.314-.432.324-.288.486-.666.486-1.134 0-.384-.114-.69-.342-.918a2.243 2.243 0 0 0-.846-.522c-.336-.12-.798-.246-1.386-.378-.732-.168-1.32-.336-1.764-.504a2.804 2.804 0 0 1-1.116-.792c-.3-.372-.45-.87-.45-1.494 0-.828.306-1.494.918-1.998.612-.516 1.446-.774 2.502-.774Zm16.824-2.682v9.432c0 1.044-.3 1.872-.9 2.484-.588.6-1.416.9-2.484.9-1.152 0-2.058-.336-2.718-1.008-.648-.684-.972-1.638-.972-2.862h1.638c0 .732.162 1.314.486 1.746.324.42.822.63 1.494.63.636 0 1.098-.18 1.386-.54.288-.36.432-.81.432-1.35v-9.432h1.638Zm10.573 9.396c0 .6-.144 1.158-.432 1.674-.288.516-.726.936-1.314 1.26-.588.324-1.314.486-2.178.486-.84 0-1.59-.15-2.25-.45a4.187 4.187 0 0 1-1.566-1.26 3.661 3.661 0 0 1-.666-1.836h1.746a2.6 2.6 0 0 0 .36 1.062c.216.336.516.618.9.846.396.216.87.324 1.422.324.72 0 1.272-.192 1.656-.576.384-.384.576-.876.576-1.476 0-.516-.138-.936-.414-1.26a2.696 2.696 0 0 0-.99-.756c-.396-.192-.936-.396-1.62-.612a18.488 18.488 0 0 1-1.944-.738 3.483 3.483 0 0 1-1.242-1.062c-.336-.468-.504-1.086-.504-1.854 0-.66.156-1.242.468-1.746.324-.504.78-.894 1.368-1.17.6-.276 1.302-.414 2.106-.414 1.248 0 2.238.306 2.97.918a3.445 3.445 0 0 1 1.278 2.304h-1.764c-.096-.504-.354-.948-.774-1.332-.42-.384-.99-.576-1.71-.576-.66 0-1.188.174-1.584.522-.396.336-.594.816-.594 1.44 0 .492.126.894.378 1.206.264.3.588.54.972.72.384.168.912.36 1.584.576.816.264 1.47.516 1.962.756.504.24.93.606 1.278 1.098.348.48.522 1.122.522 1.926Z" />
  <path fill="#000" d="M40.012 51.753V28.708h1.25v3.625a4.73 4.73 0 0 0 .41-.51 6.195 6.195 0 0 1 5.65-3.507c2.85-.085 5.166.97 6.527 3.507a11.267 11.267 0 0 1 .273 10.33c-1.269 2.843-4.4 4.256-7.753 3.737a6.271 6.271 0 0 1-5.004-3.302v9.165h-1.353Zm1.25-14.892c.111 1.123.154 1.923.282 2.706.493 3.08 2.314 4.91 5.174 5.242a5.88 5.88 0 0 0 6.459-3.736 10.015 10.015 0 0 0-.221-8.238 5.762 5.762 0 0 0-6.068-3.353 5.608 5.608 0 0 0-5.013 4.145 28.43 28.43 0 0 0-.612 3.234ZM80.757 39.992a6.74 6.74 0 0 1-6.587 5.957c-5.242.264-7.701-3.216-8.093-7.233a11.59 11.59 0 0 1 1.021-6.383 7.123 7.123 0 0 1 7.413-3.974 6.808 6.808 0 0 1 6.042 5.182c.266 1.265.462 2.544.587 3.83H67.362c-.255 3.642 1.702 6.57 4.477 7.276 3.455.851 6.408-.646 7.48-3.931.238-.843.672-.962 1.438-.724Zm-13.395-3.787h12.314c-.076-3.88-2.493-6.689-5.77-6.731-3.71-.06-6.382 2.646-6.544 6.731ZM83.293 40.077h1.209a4.841 4.841 0 0 0 2.842 4.17 7.432 7.432 0 0 0 6.45-.17 2.903 2.903 0 0 0 1.703-2.85 2.63 2.63 0 0 0-1.77-2.63c-1.328-.494-2.74-.766-4.094-1.2a29.993 29.993 0 0 1-4.119-1.507c-2.178-1.063-2.314-5.208.153-6.518a8.69 8.69 0 0 1 8.306-.128 4.374 4.374 0 0 1 2.213 4.46h-1.038c0-.052-.094-.094-.094-.145-.127-3.31-2.902-4.332-5.88-4.043-.89.11-1.753.372-2.553.775a2.553 2.553 0 0 0-1.481 2.553 2.553 2.553 0 0 0 1.702 2.4c1.31.476 2.68.782 4.025 1.157 1.08.298 2.204.494 3.251.851a3.838 3.838 0 0 1 2.638 3.464 4.093 4.093 0 0 1-2.204 4.255c-2.842 1.608-7.523 1.183-9.608-.851a5.675 5.675 0 0 1-1.65-4.043ZM112.075 33.703h-1.132c0-.153-.059-.289-.076-.417a3.704 3.704 0 0 0-3.013-3.557 7.429 7.429 0 0 0-4.774.23 2.904 2.904 0 0 0-2.102 2.766 2.674 2.674 0 0 0 2.042 2.689c1.702.527 3.447.85 5.175 1.328.559.134 1.111.302 1.651.502a4.254 4.254 0 0 1 .229 7.922 9.469 9.469 0 0 1-7.659.077 5.31 5.31 0 0 1-3.2-5.157h1.107a6.202 6.202 0 0 0 9.446 3.949 3.035 3.035 0 0 0 1.634-2.842 2.628 2.628 0 0 0-1.796-2.613c-1.327-.494-2.74-.758-4.093-1.192a30.194 30.194 0 0 1-4.145-1.489c-2.127-1.047-2.297-5.157.128-6.468a8.57 8.57 0 0 1 8.442-.093 4.45 4.45 0 0 1 2.136 4.365ZM37.944 45.532a1.949 1.949 0 0 1-2.417-.919c-1.387-2.076-2.919-4.059-4.391-6.084l-.638-.851c-1.754 2.348-3.507 4.604-5.107 6.944a1.872 1.872 0 0 1-2.297.902l6.578-8.825-6.119-7.974a2.035 2.035 0 0 1 2.426.85c1.42 2.077 2.995 4.06 4.561 6.162 1.575-2.085 3.132-4.076 4.587-6.136a1.83 1.83 0 0 1 2.28-.85l-2.373 3.148c-1.064 1.404-2.111 2.817-3.217 4.187a.85.85 0 0 0 0 1.268c2.034 2.698 4.05 5.404 6.127 8.178ZM65.873 28.64v1.191a6.17 6.17 0 0 0-6.57 6.374V45.566h-1.217V28.708h1.191v3.455c1.473-2.519 3.745-3.455 6.596-3.523ZM7.332 36.588c.179-.85.29-1.778.536-2.646 1.472-5.234 7.472-7.413 11.6-4.17 2.416 1.897 3.02 4.587 2.901 7.616H8.753c-.221 5.413 3.685 8.68 8.68 7.013a5.184 5.184 0 0 0 3.294-3.668c.264-.851.69-.996 1.498-.75a6.911 6.911 0 0 1-3.302 5.047 8 8 0 0 1-9.319-1.191 8.383 8.383 0 0 1-2.093-4.919c0-.29-.11-.579-.17-.851-.006-.505-.009-.998-.009-1.48Zm1.438-.366h12.314c-.076-3.923-2.553-6.706-5.854-6.731-3.677-.051-6.307 2.672-6.468 6.714l.008.017Z" />
</svg>
